X:84
T:Lady's Expostulation with Rob Roy, The
T:Aslachadh na baintighearna
R:Slow Air
S:Simon Fraser Collection
N:No.192
O:Scottish
M:3/4
L:1/8
K:G
d2|g4 d>c|B3 ABG|g4 d>B|c4e2|=fe d2c2|B3 ABG|B3 cdB|[B4g4]:|
|:d2|g3ab2|a2g2f2|g2d2B2|c4B2|=fed2c2|B3 ABG|B3 cdB|[B4g4]:|

